!!!COA:	Josquin des Prez
!!!CDT:	~1450-1521/08/27
!!!OTL@@LAT:	Mirabilia testimonia tua Domine
!!!OTL2@@LAT:	Justus est, Domine
!!!AGN:	Motet
!!!SCT:	NJE 18.1
!!!SCA:	New Josquin Edition 18.1
!!!voices:	4
**kern	**kern	**kern	**kern
*staff4	*staff3	*staff2	*staff1
*Ivox	*Ivox	*Ivox	*Ivox
*I"Bassus	*I"Tenor	*I"Altus	*I"Superius
*I'B	*I'T	*I'A	*I'S
*clefF4	*clefGv2	*clefGv2	*clefG2
*>[A,B]	*>[A,B]	*>[A,B]	*>[A,B]
*>A	*>A	*>A	*>A
*k[]	*k[]	*k[]	*k[]
*M2/1	*M2/1	*M2/1	*M2/1
*met(C|)	*met(C|)	*met(C|)	*met(C|)
=1-	=1-	=1-	=1-
0r	0r	0d	0r
=2	=2	=2	=2
0r	0r	1.f	0a
.	.	4e\	.
.	.	4d\	.
=3	=3	=3	=3
0r	0r	1e	1.cc
.	.	1f	.
.	.	.	4b\
.	.	.	4a/
=4	=4	=4	=4
0r	0r	2g\	1b
.	.	1e	.
.	.	.	1cc
.	.	[2f\	.
=5	=5	=5	=5
0r	0r	4f\]	2dd\
.	.	4d\	.
.	.	1e	1b
.	.	2c\	[2cc\
=6	=6	=6	=6
0r	0r	1d	4cc\]
.	.	.	4a/
.	.	.	1b
.	.	1e	.
.	.	.	2g/
=7	=7	=7	=7
0r	0r	2f\	1a
.	.	1d	.
.	.	.	1b
.	.	2e\	.
=8	=8	=8	=8
0r	0r	2.A/	2cc\
.	.	.	1a
.	.	4B\	.
.	.	2c\	.
.	.	2d\	2b\
=9	=9	=9	=9
0r	0r	2.c\	2.e/
.	.	4d\	4f/
.	.	4e\	2g/
.	.	4c\	.
.	.	2f\	2a/
=10	=10	=10	=10
0r	0r	2e\	2g/
.	.	1d	2f/
.	.	.	1e
.	.	2c#i\	.
=11	=11	=11	=11
0D	0r	1d	0d
.	.	1r	.
=12	=12	=12	=12
1D	0A	0r	0r
1C	.	.	.
=13	=13	=13	=13
1D	1A	0r	0r
2BB/	1G	.	.
[2C/	.	.	.
=14	=14	=14	=14
2C/]	1A	0r	0r
1D	.	.	.
.	2F/	.	.
[2E\	[2G/	.	.
=15	=15	=15	=15
4E\]	2G/]	0r	0r
4C/	.	.	.
2C/	2.A/	.	.
2.D\	.	.	.
.	4F/	.	.
.	2F/	.	.
4BB/	.	.	.
=16	=16	=16	=16
2BB/	1G	0r	0r
1C	.	.	.
.	1A	.	.
[2D\	.	.	.
=17	=17	=17	=17
2D\]	2.B\	0r	0r
1E	.	.	.
.	4G/	.	.
.	2G/	.	.
2F\	[2A/	.	.
=18	=18	=18	=18
1D	2A/]	0r	0r
.	1B	.	.
1E	.	.	.
.	[2c\	.	.
=19	=19	=19	=19
2.F\	4c\]	0r	0r
.	4B\	.	.
.	4A/	.	.
4E\	4G/	.	.
4D\	2F/	.	.
4C/	.	.	.
[2BB/	[2G/	.	.
=20	=20	=20	=20
4BB/]	4G/]	0r	0r
4AA/	4F/	.	.
2.D\	2D/	.	.
.	1E	.	.
4C#i/	.	.	.
2C#i/	.	.	.
=21	=21	=21	=21
1D	1D	1.f	1.a
2r	2r	.	.
[2D\	[2d\	2f\	2a/
=22	=22	=22	=22
2D\]	2d\]	1f	1a
2D\	2d\	.	.
2D\	2d\	1f	1a
2D\	2d\	.	.
=23	=23	=23	=23
0A	0c	1.e	1.cc
.	.	2f\	2a/
=24	=24	=24	=24
1G	2d\	1g	1b
.	1e	.	.
1A	.	1e	1cc
.	[2c\	.	.
=25	=25	=25	=25
2.F\	2c\]	2f\	2.a/
.	2f\	1a	.
4G\	.	.	4b\
2A\	2e\	.	2cc\
2B-i\	2d\	2g\	[2dd\
=26	=26	=26	=26
0A	0e	0a	2dd\]
.	.	.	4cc#i\
.	.	.	4b\
.	.	.	1cc#i
=27	=27	=27	=27
1.B-	1.d	1f	1.dd
.	.	2r	.
2B-i\	2d\	[2f\	2dd\
=28	=28	=28	=28
1B-	1d	2f\]	1dd
.	.	2g\	.
1B-i	1d	2f\	1dd
.	.	2g\	.
=29	=29	=29	=29
1A	2e\	1a	2cc\
.	1f	.	1a
1r	.	1r	.
.	2e\	.	2cc\
=30	=30	=30	=30
0r	2d\	0r	2b\
.	2c\	.	1a
.	1B	.	.
.	.	.	2g#i/
=31	=31	=31	=31
2.D\	1A	2f\	1a
.	.	2.d\	.
4E\	.	.	.
4F\	1r	.	1r
4G\	.	4e\	.
2A\	.	2f\	.
=32	=32	=32	=32
2G\	0r	2e\	0r
2F\	.	1d	.
1E	.	.	.
.	.	2c#i\	.
=33	=33	=33	=33
1.D	2.D/	1d	2f/
.	.	.	2.d/
.	4E/	.	.
.	4F/	2A/	.
.	4G/	.	4e/
2AA/	2A/	[2c\	2f/
=34	=34	=34	=34
2C/	2G/	2c\]	2e/
2D\	2F/	2A/	2.d/
1AA	1E	1A	.
.	.	.	4c#i/
.	.	.	2c#i/
=35	=35	=35	=35
1D	0D	0A	0d
[1F	.	.	.
=36	=36	=36	=36
2F\]	0r	2r	0r
4E\	.	1d	.
4D\	.	.	.
1E	.	.	.
.	.	2c\	.
=37	=37	=37	=37
2r	0r	1d	0r
1D	.	.	.
.	.	1e	.
2C/	.	.	.
=38	=38	=38	=38
1D	0r	1f	2r
.	.	.	1a
1E	.	1e	.
.	.	.	2g/
=39	=39	=39	=39
1F	2r	1c	1a
.	1A	.	.
1E	.	1r	1b
.	2G/	.	.
=40	=40	=40	=40
1C	1A	0r	1cc
1r	1B	.	1b
=41	=41	=41	=41
1r	1c	1e	1g
1E	1B	[1g	1r
=42	=42	=42	=42
1.G	1G	2g\]	1b
.	.	4f\	.
.	.	4e\	.
.	1r	[1d	[1dd
4F\	.	.	.
4E\	.	.	.
=43	=43	=43	=43
1.D	1B	2d\]	2dd\]
.	.	2e\	4cc\
.	.	.	4b\
.	[1d	[1f	[1a
2E\	.	.	.
=44	=44	=44	=44
1.F	2d\]	2f\]	2a/]
.	4c\	4e\	2b\
.	4B\	4d\	.
.	2A/	2c\	2cc\
2G\	2B\	[2e\	[2b\
=45	=45	=45	=45
2A\	2c\	2e\]	2b\]
2D\	2d\	2f\	2.a/
1E	1B	1e	.
.	.	.	4g#i/
.	.	.	2g#i/
=46	=46	=46	=46
2AA/	0A	2c\	[0a
1D	.	2f\	.
.	.	1e	.
2C/	.	.	.
=47	=47	=47	=47
1D	2r	1f	0a]
.	1d	.	.
1A	.	1e	.
.	2c\	.	.
=48	=48	=48	=48
1F	1d	2r	2r
.	.	2A/	1a
1E	1e	1B	.
.	.	.	2g/
=49	=49	=49	=49
1F	2c\	1A	1a
.	1d	.	.
1G	.	2d\	1b
.	[2e\	2B\	.
=50	=50	=50	=50
2E\	2e\]	1c	2g/
2A\	1f	.	1a
2F\	.	2.d\	.
[2G\	2d\	.	[2b\
.	.	4c\	.
=51	=51	=51	=51
2G\]	1e	2B\	2b\]
1A	.	1A	1cc
.	1f	.	.
2F\	.	[2a\	2a/
=52	=52	=52	=52
1G	2e\	4a\]	1b
.	.	4g\	.
.	1d	1g	.
1A	.	.	1cc
.	2c\	2f\	.
=53	=53	=53	=53
2G\	2d\	2g\	2b\
2F\	2A/	2d\	1a
1E	1B	1e	.
.	.	.	2g/
=54	=54	=54	=54
2F\	2A/	2c\	2a/
2C/	1G	2c\	2e/
1D	.	2A/	1f
.	2F/	2B\	.
=55	=55	=55	=55
2C/	2G/	2c\	2e/
2BB/	2D/	2G/	1d
1AA	1E	1A	.
.	.	.	2c#i/
=56	=56	=56	=56
2r	0D	0A	0d
2D\	.	.	.
1F	.	.	.
=57	=57	=57	=57
1E	0r	0r	1r
1D	.	.	1d
=58	=58	=58	=58
0A	0r	2r	1f
.	.	2A/	.
.	.	1c	1e
=59	=59	=59	=59
0r	0r	1B	1d
.	.	1A	1a
=60	=60	=60	=60
0r	0r	1e	2g/
.	.	.	1cc
.	.	1f	.
.	.	.	2a/
=61	=61	=61	=61
0r	0r	1d	2a/
.	.	.	2.b\
.	.	2.e\	.
.	.	.	4a/
.	.	.	4g/
.	.	4d\	4f/
=62	=62	=62	=62
0r	0r	4c\	2e/
.	.	4B\	.
.	.	1A	1cc
.	.	2e\	4b\
.	.	.	4a/
=63	=63	=63	=63
0r	0r	2d\	2b\
.	.	2c\	1a
.	.	1B	.
.	.	.	2g#i/
=64	=64	=64	=64
1D	1r	1A	1a
1F	1A	1r	1r
=65	=65	=65	=65
1E	1c	0r	0r
2.D\	1B	.	.
4E\	.	.	.
=66	=66	=66	=66
4F\	2.A/	0r	0r
4G\	.	.	.
2.A\	.	.	.
.	4B\	.	.
.	4c\	.	.
4G\	4d\	.	.
2E\	[2e\	.	.
=67	=67	=67	=67
2F\	2e\]	0r	0r
2G\	1d	.	.
1E	.	.	.
.	2c#i\	.	.
=68	=68	=68	=68
0D	0d	2r	1r
.	.	2d\	.
.	.	1f	1a
=69	=69	=69	=69
0r	0r	1e	1cc
.	.	2.d\	1b
.	.	4e\	.
=70	=70	=70	=70
0r	0r	4f\	2.a/
.	.	4g\	.
.	.	2.a\	.
.	.	.	4b\
.	.	.	4cc\
.	.	4g\	4dd\
.	.	2e\	[2ee\
=71	=71	=71	=71
0r	0r	2f\	2ee\]
.	.	2g\	2.dd\
.	.	1e	.
.	.	.	4cc#i\
.	.	.	2cc#i\
=72	=72	=72	=72
1.G	1r	1d	0dd
.	[1d	1r	.
4F\	.	.	.
4E\	.	.	.
=73	=73	=73	=73
2D\	2d\]	0r	0r
2E\	4c\	.	.
.	4B\	.	.
[1F	2A/	.	.
.	2B\	.	.
=74	=74	=74	=74
2F\]	1.c	0r	0r
4E\	.	.	.
4D\	.	.	.
2E\	.	.	.
[2D\	4B\	.	.
.	4A/	.	.
=75	=75	=75	=75
2D\]	2B\	0r	0r
2C/	1A	.	.
1BB	.	.	.
.	2G#i/	.	.
=76	=76	=76	=76
1AA	1A	2.c\	1cc
.	.	4d\	.
1r	1r	2e\	2b\
.	.	[2f\	[2a/
=77	=77	=77	=77
0r	0r	4f\]	4a/]
.	.	4e\	4g/
.	.	2.e\	4f/
.	.	.	4e/
.	.	.	2f/
.	.	4d\	.
.	.	2d\	2f/
=78	=78	=78	=78
2.C/	1c	1e	1e
4D\	.	.	.
2E\	2B\	1r	1r
[2F\	[2A/	.	.
=79	=79	=79	=79
2F\]	4A/]	0r	0r
.	4G/	.	.
1E	4F/	.	.
.	4E/	.	.
.	1F	.	.
2D\	.	.	.
=80	=80	=80	=80
2E\	2E/	0r	0r
4AA/	1A	.	.
4BB/	.	.	.
4C/	.	.	.
4D\	.	.	.
[2E\	[2G/	.	.
=81	=81	=81	=81
2E\]	4G/]	0r	0r
.	4F/	.	.
1D	4E/	.	.
.	4D/	.	.
.	1E	.	.
2C#i/	.	.	.
=82	=82	=82	=82
2D\	1D	1f	1a
2AA/	.	.	.
2C/	1r	2e\	2g/
[2D\	.	4d\	[2f/
.	.	4c\	.
=83	=83	=83	=83
4D\]	0r	4B\	4f/]
4AA/	.	4A/	4d/
2C/	.	2.A/	2e/
1BB	.	.	1d
.	.	4G/	.
.	.	2G/	.
=84	=84	=84	=84
2.AA/	2r	2A/	2.c/
.	2A/	1c	.
4BB/	.	.	4d/
2C/	2G/	.	2e/
2D\	2F/	2A/	2f/
=85	=85	=85	=85
2C/	2G/	4c\	2e/
.	.	4B\	.
2D\	2F/	4A/	1d
.	.	4G/	.
1AA	1E	1A	.
.	.	.	2c#i/
=86	=86	=86	=86
1D	0D	1A	0d
1r	.	1B	.
=87	=87	=87	=87
1AA	0r	1A	0r
1BB	.	1d	.
=88	=88	=88	=88
1AA	0r	2.c\	1e
.	.	4B\	.
1D	.	1A	1f
=89	=89	=89	=89
2.C/	1E	0r	1e
4BB/	.	.	.
1AA	1F	.	1a
=90	=90	=90	=90
0r	1E	0r	2.g/
.	.	.	4f/
.	1A	.	1e
=91	=91	=91	=91
0r	2.G/	1d	0r
.	4F/	.	.
.	1E	1e	.
=92	=92	=92	=92
1D	0r	1d	0r
1E	.	1g	.
=93	=93	=93	=93
1D	0r	2.f\	1a
.	.	4e\	.
1G	.	2.d\	1b
.	.	4e\	.
=94	=94	=94	=94
2.F\	1A	2f\	1a
.	.	2.a\	.
4E\	.	.	.
2D\	1B	.	1dd
.	.	4g\	.
2E\	.	2g\	.
=95	=95	=95	=95
1.F	1A	1a	2.cc\
.	.	.	4b\
.	1d	1f	1a
2D\	.	.	.
=96	=96	=96	=96
2.A\	2.c\	2e\	1r
.	.	1d	.
4G\	4B\	.	.
2F\	2A/	.	[1cc
4E\	4G/	[2f\	.
4D\	4F/	.	.
=97	=97	=97	=97
1C	2G/	2f\]	2cc\]
.	2G/	2e\	2b\
[1D	[1F	2.f\	[1a
.	.	4e\	.
=98	=98	=98	=98
2D\]	2F/]	4d\	2a/]
.	.	4c\	.
2E\	2E/	1c	2g/
1D	1F	.	2f/
.	.	2B\	2f/
=99	=99	=99	=99
1C	1G	1.c	[0e
[1c	[1A	.	.
.	.	2B\	.
=100	=100	=100	=100
2c\]	1A]	1.A	0e]
2B\	.	.	.
[1A	[1c	.	.
.	.	2G/	.
=101	=101	=101	=101
2A\]	2c\]	1F	1.cc
2G\	2B\	.	.
2F\	2.A/	2.c\	.
2F\	.	.	4b\
.	4B\	4d\	4a/
=102	=102	=102	=102
0E	1c	0e	2g/
.	.	.	1a
.	1B	.	.
.	.	.	2g/
=103	=103	=103	=103
1.F	1A	1.c	[0a
.	2r	.	.
4E\	[2A/	2d\	.
4D\	.	.	.
=104	=104	=104	=104
2C/	2A/]	0e	0a]
1D	4G/	.	.
.	4F/	.	.
.	1E	.	.
2C#i/	.	.	.
=105	=105	=105	=105
0D	1F	1A	2r
.	.	.	2a/
.	2r	1r	2b-i\
.	2A/	.	2a/
=106	=106	=106	=106
2r	2B-\	0r	2f/
2D\	2A/	.	2.a/
2.D\	2F/	.	.
.	.	.	4f/
.	[2A/	.	[2f/
4C/	.	.	.
=107	=107	=107	=107
2BB-/	2A/]	1r	2f/]
2BB-i/	2G/	.	4e/
.	.	.	4d/
1AA	1A	2r	[1c
.	.	2e\	.
=108	=108	=108	=108
2r	0r	2f\	1c]
2E\	.	2e\	.
2F\	.	2c\	1r
2E\	.	[2e\	.
=109	=109	=109	=109
2C/	1r	4e\]	1r
.	.	4d\	.
2.F\	.	2c\	.
.	1A	2c\	1cc
4G\	.	.	.
2A\	.	4B\	.
.	.	4A/	.
=110	=110	=110	=110
1E	2B\	2G/	4b\
.	.	.	4a/
.	2B\	2G/	4g/
.	.	.	4f/
2C/	2c\	2.A/	2e/
2D\	[2A/	.	2f/
.	.	4B\	.
=111	=111	=111	=111
2C/	4A/]	2c\	2e/
.	4G/	.	.
2D\	2F/	2A/	1d
2AA/	1E	1A	.
2AA/	.	.	2c#i/
=112	=112	=112	=112
1D	1D	0A	1d
1r	2F/	.	1r
.	4F/	.	.
.	4G/	.	.
=113	=113	=113	=113
2C/	2A/	0r	0r
4C/	2A/	.	.
4D\	.	.	.
2E\	2G/	.	.
2E\	2E/	.	.
=114	=114	=114	=114
2D\	2F/	0r	0r
2BB/	1G	.	.
2C/	.	.	.
[2D\	4F/	.	.
.	4E/	.	.
=115	=115	=115	=115
2D\]	1D	1r	2f/
4C/	.	.	4f/
4BB/	.	.	4g/
2.AA/	2F/	2c\	2a/
.	2F/	4c\	2a/
4BB/	.	4d\	.
=116	=116	=116	=116
1C	2E/	2e\	2g/
.	2A/	2e\	2e/
2D\	2A/	2d\	2f/
[2E\	2G/	2B\	[2g/
=117	=117	=117	=117
2E\]	2E/	2c\	2g/]
2.D\	2F/	1d	1f
.	2G/	.	.
4AA/	.	.	.
2C/	2G/	[2c\	2e/
=118	=118	=118	=118
1D	2F/	2c\]	1f
.	4F/	2B\	.
.	4G/	.	.
2.C/	2A/	1c	2.e/
.	2A/	.	.
4D\	.	.	4f/
=119	=119	=119	=119
2E\	2G/	2.B\	2g/
2E\	2E/	.	2g/
.	.	4c\	.
2D\	2F/	2d\	2f/
2BB/	2G/	2d\	2d/
=120	=120	=120	=120
2C/	2G/	2c\	2e/
2D\	2F/	2A/	2f/
2BB/	2G/	2B\	2d/
[2AA/	2E/	2c\	[2e/
=121	=121	=121	=121
2AA/]	2C/	2A/	2e/]
2GG/	2D/	1B	1d
1AA	2E/	.	.
.	2F/	[2A/	2c/
=122	=122	=122	=122
1BB	2E/	2A/]	2d/
.	2D/	2G/	2B/
[1AA	1E	1A	1c
=123	=123	=123	=123
1AA]	1E	1A	1c
2r	2r	2r	2r
[2D\	[2F/	[2F/	[2f/
=124	=124	=124	=124
2D\]	2F/]	2F/]	2f/]
2D\	2F/	2F/	2f/
2D\	2F/	2.A/	2f/
2D\	2F/	.	2f/
.	.	4B\	.
=125	=125	=125	=125
1C	1G	1c	1e
2r	2r	2r	2r
[2D\	[2F/	[2A/	[2a/
=126	=126	=126	=126
2D\]	2F/]	2A/]	2a/]
2D\	2F/	2A/	2a/
2D\	1F	1A	2a/
2F\	.	.	2a/
=127	=127	=127	=127
1E	1G	2B\	2g/
.	.	2c\	4f/
.	.	.	4e/
2D\	2A/	2d\	2f/
2E\	[2G/	[2c\	[2e/
=128	=128	=128	=128
2C/	2G/]	4c\]	2e/]
.	.	4B\	.
2D\	2F/	4A/	1d
.	.	4G/	.
1AA	1E	1A	.
.	.	.	2c#i/
=129	=129	=129	=129
0D	1D	0A	1d
.	2r	.	1r
.	[2A/	.	.
=130	=130	=130	=130
2r	2A/]	1r	1a
1D	1F	.	.
.	.	1d	1f
[2BB/	[2D/	.	.
=131	=131	=131	=131
2BB/]	2D/]	1B	1d
1GG	1G	.	.
.	.	1G	1g
[2C/	[2E/	.	.
=132	=132	=132	=132
2C/]	2E/]	1c	1e
1AA	1A	.	.
.	.	1A	1a
[2D\	2F/	.	.
=133	=133	=133	=133
2D\]	2B-i\	2.d\	2f/
2G\	2G/	.	2.b-i\
.	.	4e\	.
1F	1A	2f\	.
.	.	.	4a/
.	.	2f\	[2a/
=134	=134	=134	=134
1G	1B-i	2d\	2a/]
.	.	2e\	2g/
[1D	1A	[1f	1a
=135	=135	=135	=135
1D]	2r	1f]	1r
.	1d	.	.
2r	.	1r	1dd
[2G\	[2B\	.	.
=136	=136	=136	=136
2G\]	2B\]	1g	1b
1E	1G	.	.
.	.	1e	1g
[2C/	[2c\	.	.
=137	=137	=137	=137
2C/]	2c\]	1c	1cc
1F	1A	.	.
.	.	1f	1a
[2D\	[2d\	.	.
=138	=138	=138	=138
2D\]	2d\]	1d	1dd
2G\	2B\	.	.
2E\	2.e\	2g\	2b\
2A\	.	2e\	[2ee\
.	4c\	.	.
=139	=139	=139	=139
2F\	1d	2f\	2ee\]
2B-i\	.	2g\	1dd
1A	1e	2.a\	.
.	.	.	2cc#i\
.	.	4g\	.
=140	=140	=140	=140
1D	1d	1f	1dd
2r	2r	2r	2r
2G\	2B\	2g\	2dd\
=141	=141	=141	=141
2A\	2c\	2e\	2cc\
2F\	2d\	1f	2a/
1G	1B	.	1b
.	.	2e\	.
=142	=142	=142	=142
1F	1c	2f\	1a
.	.	2.F/	.
2r	2r	.	2r
.	.	4G/	.
2F\	2F/	2A/	2a/
=143	=143	=143	=143
2E\	2G/	2B\	2g/
2C/	2A/	1c	2e/
1D	2.F/	.	1f
.	.	2B\	.
.	4G/	.	.
=144	=144	=144	=144
1AA	1A	1c	1e
1D	2r	2r	1f
.	2D/	2F/	.
=145	=145	=145	=145
2C/	2E/	2G/	2e/
2AA/	2F/	1A	2c/
1BB	2E/	.	1d
.	2D/	2G#i/	.
=146	=146	=146	=146
1AA	1E	1A	2.c/
.	.	.	4d/
2r	1C	2r	4e/
.	.	.	4f/
2AA/	.	2A/	[2e/
=147	=147	=147	=147
1BB-	1D	2.F/	2e/]
.	.	.	1d
.	.	4G/	.
1AA	1E	[1A	.
.	.	.	2c#i/
=148	=148	=148	=148
2r	0D	1A]	0d
1A	.	.	.
.	.	1a	.
[2F\	.	.	.
=149	=149	=149	=149
2F\]	2r	1f	1r
1D	1d	.	.
.	.	1d	1dd
[2G\	[2B\	.	.
=150	=150	=150	=150
2G\]	2B\]	1g	1b
1E	1G	.	.
.	.	1e	1g
[2C/	[2c\	.	.
=151	=151	=151	=151
2C/]	2c\]	1c	1cc
1F	1A	.	.
.	.	2f\	1a
[2D\	2d\	2f\	.
=152	=152	=152	=152
2D\]	2B\	1d	1b
2G\	2B\	.	.
1E	2.c\	1e	2r
.	.	.	2g/
.	4B\	.	.
=153	=153	=153	=153
2F\	2A/	2d\	2a/
2E\	2G/	2c\	2e/
2D\	2G/	2c\	1f
2D\	2F/	2B\	.
=154	=154	=154	=154
1C	1G	1c	0e
2r	2r	2r	.
2C/	2G/	2c\	.
=155	=155	=155	=155
2D\	2F/	2B\	0r
2AA/	1E	1A	.
1BB	.	.	.
.	2D/	2G#i/	.
=156	=156	=156	=156
4AA/	2.E/	2.A/	1r
4BB/	.	.	.
4C/	.	.	.
4D\	4F/	4B\	.
4E\	4G/	4c\	2r
4C/	4E/	4A/	.
[2D\	[2F/	[2B\	2f/
=157	=157	=157	=157
4D\]	2F/]	2B\]	2f/
4C/	.	.	.
4BB/	1E	1A	2c/
4AA/	.	.	.
1BB	.	.	1d
.	2D/	2G#i/	.
=158	=158	=158	=158
2.AA/	1E	2A/	1c
.	.	1.c	.
4BB/	.	.	.
4C/	1r	.	2.cc\
4D\	.	.	.
2E\	.	.	.
.	.	.	4b\
=159	=159	=159	=159
2F\	2.c\	4B\	2a/
.	.	4A/	.
2C/	.	2e\	2g/
.	4B\	.	.
2D\	2A/	2d\	2f/
2E\	2G/	2c\	2e/
=160	=160	=160	=160
1.D	2.A/	2.d\	2.f/
.	4G/	4c\	4e/
.	2F/	4B\	2d/
.	.	4A/	.
2AA/	[2E/	[2A/	2c/
=161	=161	=161	=161
0BB	2E/]	2A/]	2d/
.	4D/	4G#i/	1f
.	4C/	4F#i/	.
.	1D	2.G#i/	.
.	.	.	4e/
.	.	4F#i/	4d/
=162	=162	=162	=162
0AAl	0El	0Al	0el
!!LO:LB:i:g=z
=163||	=163||	=163||	=163||
*>B	*>B	*>B	*>B
*k[]	*k[]	*k[]	*k[]
*M2/1	*M2/1	*M2/1	*M2/1
*met(C|)	*met(C|)	*met(C|)	*met(C|)
!!section: Secunda pars: Justus est, Domine
!!!OMD: Secunda pars: Justus est, Domine
0r	0r	0d	0r
=164	=164	=164	=164
0D	0r	1d	0r
.	.	1d	.
=165	=165	=165	=165
1D	0r	1.f	0a
1D	.	.	.
.	.	2e\	.
=166	=166	=166	=166
0F	0r	2d\	1a
.	.	1f	.
.	.	.	1a
.	.	4e\	.
.	.	4d\	.
=167	=167	=167	=167
1F	0A	0c	1.cc
1C	.	.	.
.	.	.	2b\
=168	=168	=168	=168
0F	1A	2r	2a/
.	.	1c	1cc
.	1A	.	.
.	.	2d\	4b\
.	.	.	4a/
=169	=169	=169	=169
2E\	1.c	1.e	0g
2E\	.	.	.
[1C	.	.	.
.	2B\	2e\	.
=170	=170	=170	=170
2C/]	2A/	2.e\	2r
2C/	1c	.	1g
.	.	4d\	.
2C/	.	2e\	.
2F\	4B\	2f\	2a/
.	4A/	.	.
=171	=171	=171	=171
0E	0G	0g	1.b
.	.	.	2b\
=172	=172	=172	=172
2r	2r	0e	2.b\
2.E\	1G	.	.
.	.	.	4a/
.	.	.	2b\
4D\	.	.	.
2C/	2A/	.	2cc\
=173	=173	=173	=173
1BB	1B	1d	1.dd
1D	2r	2r	.
.	[2A/	[2f\	2cc\
=174	=174	=174	=174
1E	2A/]	2f\]	1b
.	2G/	1e	.
1F	2.A/	.	1a
.	.	2d\	.
.	4B\	.	.
=175	=175	=175	=175
2.E\	4c\	1e	2.g/
.	4d\	.	.
.	2.e\	.	.
4F\	.	.	4a/
4G\	.	2e\	4b\
4A\	4c\	.	4cc\
[2G\	[2d\	[2g\	[2b\
=176	=176	=176	=176
4G\]	4d\]	4g\]	2b\]
4A\	4c\	4f\	.
2F\	4B\	2d\	1a
.	4A/	.	.
1E	1B	1e	.
.	.	.	2g#i/
=177	=177	=177	=177
0AA	0A	0c	[0a
=178	=178	=178	=178
0D	1r	1.A	0a]
.	1F	.	.
.	.	2B\	.
=179	=179	=179	=179
1.C	1.G	0c	1.e
2C/	2G/	.	2e/
=180	=180	=180	=180
2.AA/	0A	1c	2.e/
4BB/	.	.	4d/
2C/	.	1c	2e/
2D\	.	.	2f/
=181	=181	=181	=181
2E\	2.G/	2B\	1.g
1C	.	2.c\	.
.	4F/	.	.
.	2E/	.	.
.	.	4B\	.
2D\	[2D/	[2B\	2f/
=182	=182	=182	=182
1AA	2D/]	4B\]	1e
.	.	4A/	.
.	2C/	1A	.
1BB	1D	.	1d
.	.	2G#i/	.
=183	=183	=183	=183
2.AA/	2E/	1.A	2.c/
.	2.A/	.	.
4BB/	.	.	4d/
4C/	.	.	4e/
4D\	4F/	.	4f/
[2C/	[2G/	[2c\	[2e/
=184	=184	=184	=184
4C/]	4G/]	4c\]	2e/]
4D\	4F/	4B\	.
2BB/	4E/	2G/	1d
.	4D/	.	.
1AA	1E	1A	.
.	.	.	2c#i/
=185	=185	=185	=185
[0D	2D/	0A	[0d
.	2.d\	.	.
.	4c\	.	.
.	4B\	.	.
.	4A/	.	.
=186	=186	=186	=186
1D]	1B	2r	1d]
.	.	2d\	.
1r	1A	2e\	2r
.	.	2f\	2a/
=187	=187	=187	=187
0r	1G	2g\	2b\
.	.	2a\	2cc\
.	1r	2g\	2dd\
.	.	2e\	[2ee\
=188	=188	=188	=188
1r	1r	2f\	4ee\]
.	.	.	4dd\
.	.	2g\	1dd
1AA	2r	1e	.
.	2E/	.	2cc#i\
=189	=189	=189	=189
1D	2F/	[0d	1dd
.	2G/	.	.
2D\	2A/	.	1r
[2D\	[2B\	.	.
=190	=190	=190	=190
4D\]	4B\]	0d]	0r
4C/	4A/	.	.
4BB/	1A	.	.
4AA/	.	.	.
2BB/	.	.	.
2BB/	2G#i/	.	.
=191	=191	=191	=191
2AA/	1A	2.c\	1r
2.A\	.	.	.
.	.	4d\	.
.	2r	2e\	2r
4G\	.	.	.
2F\	2A/	2f\	2a/
=192	=192	=192	=192
2E\	1e	2g\	2b\
2A\	.	2e\	2cc\
2D\	2d\	2f\	2dd\
2A\	2c\	2e\	[2ee\
=193	=193	=193	=193
2F\	1d	2f\	4ee\]
.	.	.	4dd\
2B-\	.	2g\	1dd
1A	1e	1a	.
.	.	.	2cc#i\
=194	=194	=194	=194
1D	2r	2r	1dd
.	1d	2.f\	.
1r	.	.	1r
.	.	4g\	.
.	2c\	2a\	.
=195	=195	=195	=195
1G	1B	2d\	1.dd
.	.	1g	.
1D	1A	.	.
.	.	[2f\	2cc\
=196	=196	=196	=196
1E	2F/	2f\]	1b
.	2G/	1e	.
1F	2.A/	.	1a
.	.	2d\	.
.	4B\	.	.
=197	=197	=197	=197
2.C/	1c	1e	1g
4D\	.	.	.
2E\	2r	2r	2r
[2F\	[2A/	[2d\	[2a/
=198	=198	=198	=198
4F\]	4A/]	2d\]	4a/]
4E\	4G/	.	4e/
2C/	2E/	1c	2g/
1D	1F	.	1f
.	.	2B\	.
=199	=199	=199	=199
2.C/	1G	1c	1e
4D\	.	.	.
2E\	2r	1r	1r
[2F\	[2A/	.	.
=200	=200	=200	=200
2F\]	4A/]	0r	0r
.	4E/	.	.
1E	2G/	.	.
.	1F	.	.
[2D\	.	.	.
=201	=201	=201	=201
2D\]	1E	2r	1r
2C/	.	2e\	.
2D\	1D	2.f\	2r
[2F\	.	.	[2a/
.	.	4e\	.
=202	=202	=202	=202
4F\]	2r	4d\	4a/]
4E\	.	4c\	4e/
2C/	2E/	1c	2g/
1D	1F	.	1f
.	.	2B\	.
=203	=203	=203	=203
2C/	1G	2.c\	1e
1E	.	.	.
.	.	4d\	.
.	2r	2e\	1r
[2D\	[2A/	[2f\	.
=204	=204	=204	=204
2D\]	4A/]	2f\]	1r
.	4E/	.	.
2C/	2G/	2e\	.
1D	1F	2A/	1a
.	.	[2d\	.
=205	=205	=205	=205
2r	1E	2d\]	2g/
2AA/	.	2c\	2e/
2D\	2D/	2d\	2f/
2E\	[2G/	2B\	[2e/
=206	=206	=206	=206
2C/	2G/]	2c\	2e/]
2D\	2F/	2A/	1d
2AA/	1E	[1A	.
2AA/	.	.	2c#i/
=207	=207	=207	=207
0D	1D	2A/]	1d
.	.	2.F/	.
.	2r	.	1r
.	.	4G/	.
.	2D/	4A/	.
.	.	4B-i\	.
=208	=208	=208	=208
1D	1F	2A/	0r
.	.	1d	.
1AA	1E	.	.
.	.	2c#i\	.
=209	=209	=209	=209
1r	4D/	0d	0r
.	4E/	.	.
.	4F/	.	.
.	4G/	.	.
1D	2A/	.	.
.	2B-i\	.	.
=210	=210	=210	=210
1F	2A/	0r	0r
.	1d	.	.
1E	.	.	.
.	2c#i\	.	.
=211	=211	=211	=211
1D	1d	0r	1r
2r	2r	.	1d
[2D\	[2f\	.	.
=212	=212	=212	=212
4D\]	4f\]	0r	1f
4E\	4e\	.	.
4F\	1d	.	.
4G\	.	.	.
2A\	.	.	1e
2A\	2c#i\	.	.
=213	=213	=213	=213
[0D	1d	1r	4d/
.	.	.	4e/
.	.	.	4f/
.	.	.	4g/
.	1r	1d	2a/
.	.	.	2b-i\
=214	=214	=214	=214
1D]	1r	1f	2a/
.	.	.	1dd
1r	2r	1e	.
.	2A/	.	2cc\
=215	=215	=215	=215
0r	2.B\	2d\	1dd
.	.	1g	.
.	4c\	.	.
.	1d	.	2r
.	.	2f#i\	2a/
=216	=216	=216	=216
0r	2.G/	1g	2.b\
.	4A/	.	4cc\
.	4B\	1r	1dd
.	4c\	.	.
.	2d\	.	.
=217	=217	=217	=217
1r	2.e\	0r	2.g/
.	4c\	.	4a/
2r	4d\	.	4b\
.	4e\	.	4cc\
2D\	2f\	.	[2dd\
=218	=218	=218	=218
2E\	1e	1r	4dd\]
.	.	.	4cc\
2F\	.	.	2.cc\
1G	1d	2r	.
.	.	.	4b\
.	.	2d\	4b\
.	.	.	4a/
=219	=219	=219	=219
2C/	1c	2.e\	1cc
1c	.	.	.
.	.	4f\	.
.	1r	1g	1r
2B\	.	.	.
=220	=220	=220	=220
1A	0r	2c\	0r
.	.	1f	.
1G	.	.	.
.	.	2e\	.
=221	=221	=221	=221
1F	0r	1f	0r
2G\	.	2d\	.
2E\	.	2e\	.
=222	=222	=222	=222
2.A\	0r	4e\	0r
.	.	4d\	.
.	.	4c\	.
4G\	.	4B\	.
4F\	.	2A/	.
4E\	.	.	.
2D\	.	[2d\	.
=223	=223	=223	=223
2.G\	0r	4d\]	0r
.	.	4c\	.
.	.	4B\	.
4F\	.	4A/	.
2E\	.	2G/	.
[2D\	.	[2B\	.
=224	=224	=224	=224
4D\]	0r	2B\]	0r
4C/	.	.	.
4BB/	.	1A	.
4AA/	.	.	.
1BB	.	.	.
.	.	2G/	.
=225	=225	=225	=225
2.AA/	2r	4A/	0r
.	.	4B\	.
.	1c	4c\	.
4BB/	.	4d\	.
4C/	.	4e\	.
4D\	.	4f\	.
2E\	2B\	2g\	.
=226	=226	=226	=226
2F\	2A/	2f\	0r
2C/	2G/	1e	.
1D	2F/	.	.
.	2F/	2d\	.
=227	=227	=227	=227
2C/	2E/	2e\	0r
1F	2.A/	2.c\	.
.	4B\	4c\	.
2E\	2c\	2c\	.
=228	=228	=228	=228
4D\	2B\	4c\	0r
4C/	.	8d\L	.
.	.	8e\J	.
4BB/	1A	1f	.
4AA/	.	.	.
1BB	.	.	.
.	2G#i/	4e\	.
.	.	4d\	.
=229	=229	=229	=229
0AA	[0A	0c	2r
.	.	.	1cc
.	.	.	2b\
=230	=230	=230	=230
1r	0A]	0r	2a/
.	.	.	2g/
1D	.	.	2f/
.	.	.	2f/
=231	=231	=231	=231
2C/	0r	2r	2e/
2.F\	.	1f	2.a/
4E\	.	.	4b\
2C/	.	2e\	2cc\
=232	=232	=232	=232
2G\	0r	2d\	2b\
2A\	.	2c\	1a
1E	.	2B\	.
.	.	2B\	2g#i/
=233	=233	=233	=233
2.F\	0r	2A/	0a
.	.	2.d\	.
4E\	.	.	.
4F\	.	.	.
4G\	.	4e\	.
2A\	.	2f\	.
=234	=234	=234	=234
2G\	0r	2e\	0r
2F\	.	1d	.
1E	.	.	.
.	.	2c#i\	.
=235	=235	=235	=235
1D	1A	1d	1r
1r	[1d	1r	1a
=236	=236	=236	=236
1D	2d\]	1r	1.dd
.	2c\	.	.
[1G	[1B	1d	.
.	.	.	2cc\
=237	=237	=237	=237
2G\]	2B\]	1.g	1.b
2F\	2A/	.	.
[1E	[1G	.	.
.	.	2f\	2a/
=238	=238	=238	=238
2E\]	1G]	1.e	0g
2D\	.	.	.
[1C	1r	.	.
.	.	2d\	.
=239	=239	=239	=239
1C]	1r	0c	0r
1r	[1c	.	.
=240	=240	=240	=240
1r	2c\]	1r	1.cc
.	2B\	.	.
[1AA	2A/	2.A/	.
.	2G/	.	2b\
.	.	4B\	.
=241	=241	=241	=241
2AA/]	2F/	2c\	2a/
2AA/	2E/	2c\	2g/
2D\	2D/	2d\	2f/
2E\	[2G/	2B\	[2e/
=242	=242	=242	=242
2C/	2G/]	2c\	4e/]
.	.	.	4d/
2D\	2F/	2A/	1d
1AA	1E	1A	.
.	.	.	2c#i/
=243	=243	=243	=243
1.D	[0D	2.f\	0d
.	.	4e\	.
.	.	2d\	.
2E\	.	4c\	.
.	.	4B\	.
=244	=244	=244	=244
2.F\	0D]	1A	0r
4G\	.	.	.
1A	.	1r	.
=245	=245	=245	=245
0D	0r	2d\	1r
.	.	4d\	.
.	.	4d\	.
.	.	2A/	2a/
.	.	4A/	4a/
.	.	4B\	4a/
=246	=246	=246	=246
0r	0r	1c	2e/
.	.	.	4e/
.	.	.	4f/
.	.	1B	2g/
.	.	.	2g/
=247	=247	=247	=247
2D\	1r	1A	0a
4D\	.	.	.
4D\	.	.	.
2AA/	2A/	1r	.
4AA/	4A/	.	.
4BB/	4A/	.	.
=248	=248	=248	=248
1C	2E/	0r	0r
.	4E/	.	.
.	4F/	.	.
1BB	1G	.	.
=249	=249	=249	=249
4AA/	2.A/	0r	0r
4BB/	.	.	.
4C/	.	.	.
4D\	4B\	.	.
4E\	2c\	.	.
4C/	.	.	.
[2D\	[2B\	.	.
=250	=250	=250	=250
2D\]	2B\]	0r	0r
2C/	1A	.	.
1BB	.	.	.
.	2G#i/	.	.
=251	=251	=251	=251
0AA	1A	2e\	1r
.	.	4e\	.
.	.	4e\	.
.	1r	2A/	2a/
.	.	4A/	4a/
.	.	4B\	4a/
=252	=252	=252	=252
1A	1r	1c	2e/
.	.	.	4e/
.	.	.	4f/
1E	1e	1B	2g/
.	.	.	2g/
=253	=253	=253	=253
1.A	1.c	4A/	2.a/
.	.	4B\	.
.	.	4c\	.
.	.	4d\	4b\
.	.	4e\	2cc\
.	.	4f\	.
[2G\	[2d\	[2g\	[2b\
=254	=254	=254	=254
2G\]	2d\]	4g\]	4b\]
.	.	4f\	4a/
2A\	2c\	4e\	1a
.	.	4d\	.
1E	1B	1e	.
.	.	.	2g#i/
=255	=255	=255	=255
1.AA	1A	1.c	[0a
.	1F	.	.
2BB/	.	2d\	.
=256	=256	=256	=256
1C	1E	1e	0a]
1D	1r	1f	.
=257	=257	=257	=257
1AA	2c\	0e	1r
.	4B\	.	.
.	4G/	.	.
1r	2A/	.	2cc\
.	2G/	.	4b\
.	.	.	4g/
=258	=258	=258	=258
0r	2F/	0r	2a/
.	2E/	.	2g/
.	2A/	.	2f/
.	4G/	.	2e/
.	4E/	.	.
=259	=259	=259	=259
0r	2F/	0r	2a/
.	2E/	.	4g/
.	.	.	4e/
.	2.A/	.	2f/
.	.	.	[2e/
.	4B\	.	.
=260	=260	=260	=260
0r	2c\	0r	2e/]
.	2d\	.	1a
.	1B	.	.
.	.	.	2g#i/
=261	=261	=261	=261
2F\	1A	1r	1a
4E\	.	.	.
4C/	.	.	.
2D\	1r	2f\	1r
2C/	.	4e\	.
.	.	4c\	.
=262	=262	=262	=262
2BB/	0r	2d\	0r
2AA/	.	2c\	.
2D\	.	2B\	.
4C/	.	2A/	.
4AA/	.	.	.
=263	=263	=263	=263
2BB/	0r	2d\	0r
2AA/	.	4c\	.
.	.	4A/	.
2.D\	.	2B\	.
.	.	[2A/	.
4E\	.	.	.
=264	=264	=264	=264
2F\	0r	2A/]	0r
2G\	.	1d	.
1E	.	.	.
.	.	2c\	.
=265	=265	=265	=265
4D\	0r	2.d\	0r
4E\	.	.	.
4F\	.	.	.
4G\	.	4B\	.
2A\	.	2c\	.
[2B\	.	[2d\	.
=266	=266	=266	=266
4B\]	0r	4d\]	0r
4A\	.	4c\	.
1A	.	4B\	.
.	.	4A/	.
.	.	1B	.
2G#i\	.	.	.
=267	=267	=267	=267
1A	2c\	1A	1r
.	4B\	.	.
.	4G/	.	.
1r	2A/	1r	2cc\
.	2G/	.	4b\
.	.	.	4g/
=268	=268	=268	=268
0r	2F/	0r	2a/
.	2E/	.	2g/
.	2A/	.	2f/
.	4G/	.	2e/
.	4E/	.	.
=269	=269	=269	=269
2AA/	2F/	1.A	2a/
2C/	2E/	.	4g/
.	.	.	4e/
2D\	2D/	.	2f/
2AA/	2C/	2c\	[2e/
=270	=270	=270	=270
1BB-	1D	2F/	2e/]
.	.	2G/	1d
1AA	1E	1A	.
.	.	.	2c#i/
=271	=271	=271	=271
1D	0D	2A/	1d
.	.	1f	.
[1F	.	.	2r
.	.	4e\	2a/
.	.	4d\	.
=272	=272	=272	=272
2F\]	0r	2c\	2a/
4E\	.	1d	2a/
4D\	.	.	.
1E	.	.	2g/
.	.	2c\	2g/
=273	=273	=273	=273
1D	1r	1d	2f/
.	.	.	1a
1r	2r	1r	.
.	2A/	.	4g/
.	.	.	4f/
=274	=274	=274	=274
0r	2A/	0r	2e/
.	2A/	.	1f
.	2G/	.	.
.	2G/	.	2e/
=275	=275	=275	=275
1.D	1F	2r	1f
.	.	1f	.
.	1r	.	1r
4C/	.	2f\	.
4BB/	.	.	.
=276	=276	=276	=276
2AA/	0r	2f\	0r
1D	.	2f\	.
.	.	2e\	.
2C/	.	2e\	.
=277	=277	=277	=277
1.F	0r	2d\	0r
.	.	1f	.
2F\	.	4e\	.
.	.	4d\	.
=278	=278	=278	=278
2F\	0r	2c\	0r
2F\	.	1d	.
1E	.	.	.
.	.	2c#i\	.
=279	=279	=279	=279
1.D	0r	1.d	2r
.	.	.	1f
2D\	.	4c\	2f/
.	.	4B\	.
=280	=280	=280	=280
2D\	0r	2A/	2f/
2D\	.	1d	2f/
1A	.	.	2e/
.	.	2c#i\	2e/
=281	=281	=281	=281
1D	1.F	1d	2d/
.	.	.	1f
2r	.	2r	.
2D\	2F/	[2A/	4e/
.	.	.	4d/
=282	=282	=282	=282
2AA/	2F/	2A/]	2c/
2BB-/	2D/	2G/	1d
1AA	2E/	1A	.
.	2E/	.	2c#i/
=283	=283	=283	=283
[0D	0D	0A	1d
.	.	.	1r
=284	=284	=284	=284
0D]	1r	0r	1.a
.	[1A	.	.
.	.	.	2a/
=285	=285	=285	=285
0r	2A/]	0r	2a/
.	2A/	.	2a/
.	2A/	.	2.e/
.	2A/	.	.
.	.	.	4f/
=286	=286	=286	=286
0r	2.E/	0r	2g/
.	.	.	2a/
.	4F/	.	.
.	2G/	.	2b\
.	2A/	.	2cc\
=287	=287	=287	=287
0r	2B\	0r	2dd\
.	2c\	.	4cc\
.	.	.	4b\
.	2d\	.	2a/
.	2A/	.	[2cc\
=288	=288	=288	=288
0r	1c	0r	4cc\]
.	.	.	4b\
.	.	.	1a
.	1B	.	.
.	.	.	2g#i/
=289	=289	=289	=289
0D	0A	1.d	[0a
.	.	2d\	.
=290	=290	=290	=290
2D\	0r	2d\	0a]
2D\	.	2d\	.
2D\	.	2.A/	.
2D\	.	.	.
.	.	4B\	.
=291	=291	=291	=291
2.AA/	0r	2c\	0r
.	.	2d\	.
4BB/	.	.	.
2C/	.	2e\	.
2D\	.	2f\	.
=292	=292	=292	=292
2E\	0r	2g\	0r
2F\	.	4f\	.
.	.	4e\	.
2G\	.	2d\	.
2D\	.	[2f\	.
=293	=293	=293	=293
1F	0r	4f\]	0r
.	.	4e\	.
.	.	1d	.
1E	.	.	.
.	.	2c#i\	.
=294	=294	=294	=294
0D	1r	0d	1a
.	1A	.	2a/
.	.	.	2a/
=295	=295	=295	=295
0AA	2A/	0r	2a/
.	2A/	.	2a/
.	2A/	.	2.e/
.	2A/	.	.
.	.	.	4f/
=296	=296	=296	=296
0r	2.E/	0r	2g/
.	.	.	2a/
.	4F/	.	.
.	2G/	.	2d/
.	2A/	.	[2f/
=297	=297	=297	=297
1r	2D/	1r	2f/]
.	2E/	.	4e/
.	.	.	4d/
2r	2F/	2r	2c/
[2C/	2G/	[2c\	[2e/
=298	=298	=298	=298
4C/]	2F/	4c\]	4e/]
4D\	.	4B\	4d/
2BB/	4E/	2G/	1d
.	4D/	.	.
1AA	1E	1A	.
.	.	.	2c#i/
=299	=299	=299	=299
1.D	1D	1A	1d
.	2r	[1d	1f
2D\	[2A/	.	.
=300	=300	=300	=300
1D	2A/]	2d\]	2f/
.	2A/	4c\	2f/
.	.	4B\	.
1D	2.F/	2A/	1f
.	.	2B\	.
.	4G/	.	.
=301	=301	=301	=301
1AA	1.A	1c	1.e
[1C	.	2c\	.
.	4G/	2d\	2f/
.	4F/	.	.
=302	=302	=302	=302
1C]	2E/	2.e\	2g/
.	1A	.	2a/
.	.	4c\	.
1BB	.	1d	1b
.	2G#i/	.	.
=303	=303	=303	=303
1AA	0A	2c\	1.cc
.	.	2c\	.
1F	.	2c\	.
.	.	[2d\	2b\
=304	=304	=304	=304
2F\	1F	2d\]	2a/
2E\	.	1c	2g/
2D\	2F/	.	1f
2D\	2G/	2B\	.
=305	=305	=305	=305
1C	0A	1.c	1e
1C	.	.	[1cc
.	.	2c\	.
=306	=306	=306	=306
1F	1.A	1c	2cc\]
.	.	.	2b\
1F	.	1d	1a
.	2B\	.	.
=307	=307	=307	=307
1E	1c	1e	1g
1F	2r	2c\	[1a
.	[2F/	[2d\	.
=308	=308	=308	=308
1C	2F/]	4d\]	2a/]
.	.	4c\	.
.	2E/	1c	2g/
1D	2F/	.	1f
.	2G/	2B\	.
=309	=309	=309	=309
1C	1A	1c	1e
1D	2r	2A/	[1f
.	[2D/	[2B-i\	.
=310	=310	=310	=310
1AA	2D/]	4B-\]	2f/]
.	.	4A/	.
.	2C/	1A	2e/
1BB-i	2D/	.	1d
.	2D/	2G/	.
=311	=311	=311	=311
00AA;	00E;	00A;	00c#i;
=312	=312	=312	=312
0Dl	0Dl	0Al	0dl
==	==	==	==
*-	*-	*-	*-
!!!RDF**kern: l=long note in original notation
!!!RDF**kern: i=editorial accidental
!!!RDF**kern: V=start of tuplet marker
!!!RDF**kern: Z=end of tuplet marker
!!!ENC:	Joel Chapman 2012/1/20
!!!END:	2012/01/20/
!!!EED:	Jesse Rodin
!!!EEV:	2012/02/02/
!!attribution-level@Jos: 4 (questionable)
!!!ONB:	Translated from MusicXML and edited on 2012/02/02/ by Craig Sapp
!!muse2ps: u^(2) @{OTL2}^C^@{COA}?\n@{SCT}^i2I150v95,95,95,150Q16
